svg/community_centre-11.svg

<?xml version="1.0" encoding="UTF-8" standalone="no"?>
<svg
   xmlns:dc="http://purl.org/dc/elements/1.1/"
   xmlns:cc="http://creativecommons.org/ns#"
   xmlns:rdf="http://www.w3.org/1999/02/22-rdf-syntax-ns#"
   xmlns:svg="http://www.w3.org/2000/svg"
   xmlns="http://www.w3.org/2000/svg"
   xmlns:sodipodi="http://sodipodi.sourceforge.net/DTD/sodipodi-0.dtd"
   xmlns:inkscape="http://www.inkscape.org/namespaces/inkscape"
   id="svg2"
   viewBox="0 0 11 11"
   height="11"
   width="11"
   version="1.1"
   inkscape:version="0.91 r13725"
   sodipodi:docname="community_centre-11.svg">
  <sodipodi:namedview
     pagecolor="#ffffff"
     bordercolor="#666666"
     borderopacity="1"
     objecttolerance="10"
     gridtolerance="10"
     guidetolerance="10"
     inkscape:pageopacity="0"
     inkscape:pageshadow="2"
     inkscape:window-width="1920"
     inkscape:window-height="1016"
     id="namedview7"
     showgrid="false"
     inkscape:zoom="45.254834"
     inkscape:cx="-1.8816309"
     inkscape:cy="4.4891442"
     inkscape:window-x="0"
     inkscape:window-y="27"
     inkscape:window-maximized="1"
     inkscape:current-layer="svg2" />
  <metadata
     id="metadata8">
    <rdf:RDF>
      <cc:Work
         rdf:about="">
        <dc:format>image/svg+xml</dc:format>
        <dc:type
           rdf:resource="http://purl.org/dc/dcmitype/StillImage" />
        <dc:title></dc:title>
      </cc:Work>
    </rdf:RDF>
  </metadata>
  <defs
     id="defs6" />
  <rect
     style="visibility:hidden;fill:none;stroke:none"
     id="canvas"
     y="-3"
     x="0"
     height="14"
     width="14" />
  <path
     d="m 9.0186862,1.8631347 c 0,0.6509069 -0.5183448,1.1785715 -1.1577551,1.1785715 -0.6394103,0 -1.1577549,-0.5276645 -1.1577549,-1.1785715 0,-0.650907 0.5183446,-1.17857136 1.1577549,-1.17857136 0.6394103,0 1.1577551,0.52766436 1.1577551,1.17857136 z m -6.6577551,2.7500001 1.5714285,0 0,2.3571428 -1.5714285,0 z m 1.9434691,-2.75 c 0,0.6509069 -0.5183446,1.1785714 -1.1577549,1.1785714 -0.6394102,0 -1.1577548,-0.5276645 -1.1577548,-1.1785714 0,-0.650907 0.5183446,-1.17857146 1.1577548,-1.17857146 0.6394103,0 1.1577549,0.52766446 1.1577549,1.17857146 z m -4.30061206,1.9642857 5.50000006,0 0,0.7857143 -5.50000006,0 z m 0.7857143,6.2857145 1.57142866,-3.1428574 0.7857142,0 -1.5714285,3.1428574 z m 4.71428576,0 -1.5714286,-3.1428574 -0.7857143,0 1.5714286,3.1428574 z m 1.5714286,-5.5000002 1.5714284,0 0,2.3571428 -1.5714284,0 z m -1.5714286,-0.7857143 5.4999988,0 0,0.7857143 -5.4999988,0 z m 0,6.2857145 1.5714286,-3.1428574 0.7857143,0 -1.5714286,3.1428574 z m 4.7142848,0 -1.5714278,-3.1428574 -0.7857141,0 1.5714281,3.1428574 z"
     style="fill:#000000;fill-opacity:1;fill-rule:evenodd;stroke:none;stroke-opacity:1"
     id="path4139-0"
     inkscape:connector-curvature="0" />
</svg>

<svg xmlns="http://www.w3.org/2000/svg" height="11" width="11">
    <path visibility="hidden" fill="none" d="M0-3h14v14H0z"/>
    <path d="M9.019 1.863c0 .651-.519 1.179-1.158 1.179-.64 0-1.158-.528-1.158-1.179 0-.65.519-1.178 1.158-1.178.64 0 1.158.527 1.158 1.178zM2.36 4.613h1.571V6.97H2.361zm1.943-2.75c0 .651-.518 1.179-1.157 1.179-.64 0-1.158-.528-1.158-1.179 0-.65.518-1.178 1.158-1.178.64 0 1.157.527 1.157 1.178zm-4.3 1.964h5.5v.786h-5.5zm.786 6.286L2.36 6.97h.787l-1.572 3.143zm4.714 0L3.932 6.97h-.785l1.571 3.143zm1.571-5.5h1.572V6.97H7.075zm-1.571-.786h5.5v.786h-5.5zm0 6.286L7.075 6.97h.786L6.29 10.113zm4.714 0L8.647 6.97H7.86l1.571 3.143z" fill-rule="evenodd"/>
</svg>
